X: 29383
T: Next Parish, The
R: reel
M: 4/4
K: Bminor
fgfd Bffg|fedc B2b2|a2g2 f2e2|1 d2c2 B2^A2:|2 d2 ^A2B2||
|:cB|ABcB A2GA|FADA A~d3|cded c2B2|^ABc^A B2F^e|
f2^e2 f2=e2|d2c2 d2B2|^ABc^A B2F2|1 D2C2 B,2:|2 D2C2 B,4||

